images_elementary_svg/cmd/sc_dbreportrename.svg

<svg viewBox="0 0 16 16" xmlns="http://www.w3.org/2000/svg">/&amp;gt;<path d="m1 3h1l1 1v11h12v-13l-1-1h-13z" fill="#e9e9e9" fill-rule="evenodd"/><path d="m2.494 0c-.946-.013-1.682.5-2.062 1.19-.38.692-.48 1.534-.412 2.35a.5.5 0 0 0 .498.46h1.468v9.5c0 .658.338 1.252.793 1.707.453.455 1.047.793 1.705.793h7.516v-1h-7.514c-.284 0-.69-.19-1-.5s-.5-.715-.5-1v-10a.5.5 0 0 0 -.5-.5h-1.396c.018-.488.036-.998.217-1.326.243-.442.553-.682 1.173-.674a.5.5 0 0 0 .006 0h9.514v-1z" fill="#a3a3a3"/><path d="m5.987 2v1h6.013v-1zm0 2v1h6.013v-1zm0 2v1h6.013v-1zm0 2v1h6.013v-1zm0 2v1h6.013v-1zm-2-8v1h1v-1zm0 2v1h1v-1zm0 2v1h1v-1zm0 2v1h1v-1zm0 2v1h1v-1zm0 2v1h1v-1z" fill="#adadad"/><g fill="#a3a3a3"><path d="m6.486 12a.5.5 0 0 0 -.5.5c.002.762-.123 1.436-.365 1.86-.24.426-.53.64-1.133.64a.5.5 0 0 0 -.146.023.5.5 0 0 0 -.046.018.5.5 0 0 0 -.127.08.5.5 0 0 0 -.035.037.5.5 0 0 0 -.12.463.5.5 0 0 0 .033.093.5.5 0 0 0 .05.086.5.5 0 0 0 .034.037.5.5 0 0 0 .16.117.5.5 0 0 0 .144.04.5.5 0 0 0 .054.005h8.511v-1h-6.65c.038-.056.107-.087.14-.146.3-.526.347-1.192.39-1.855h6.12v-1zm.514-12v1h6.188c.23 0 .752.252 1.148.648s.65.92.65 1.15l.017 10.202h1l-.017-10.2c0-.712-.423-1.34-.94-1.86-.52-.516-1.146-.94-1.858-.94z"/><path d="m9 12v1h5.912c-.018.49-.035 1.005-.22 1.334-.245.442-.56.683-1.192.666a.5.5 0 0 0 -.014 0h-4.486v1h4.475c.958.026 1.706-.486 2.093-1.18.387-.693.487-1.54.418-2.363a.5.5 0 0 0 -.5-.457z"/></g><path d="m12.987 2v1h1v-1zm0 2v1h1v-1zm0 2v1h1v-1zm0 2v1h1v-1zm0 2v1h1v-1z" fill="#adadad"/><path d="m6.88 13h8.12l-.186 1h-8.052z" fill="#fff"/><path d="m9 0v3h1l1-.287v9.487l-1 .8h-1v3h7v-3h-1l-1-.726v-9.596l1.143.322h.857v-3z" fill-rule="evenodd" opacity=".52"/><path d="m16-4.944 1.94-.027s1 0 1 1v15.387s-.087 1.544-1.088 1.544h-1.852m5.833-17.95-1.91.018s-1 0-1 1v15.932s.09 1.01 1.09 1l1.82-.016" fill="none" stroke="#fff" stroke-width="1.267" transform="matrix(.85714 0 0 .72727 -3.714 5.09)"/></svg>

<svg xmlns="http://www.w3.org/2000/svg" viewBox="0 0 16 16"><defs><linearGradient id="a"><stop offset="0" stop-color="#181818"/><stop offset=".135" stop-color="#dbdbdb"/><stop offset=".202" stop-color="#a4a4a4"/><stop offset=".27" stop-color="#fff"/><stop offset=".447" stop-color="#8d8d8d"/><stop offset=".571" stop-color="#959595"/><stop offset=".72" stop-color="#cecece"/><stop offset="1" stop-color="#181818"/></linearGradient><linearGradient id="b"><stop offset="0" stop-color="#565656"/><stop offset=".5" stop-color="#9a9a9a"/><stop offset="1" stop-color="#545454"/></linearGradient><linearGradient id="c"><stop offset="0" stop-color="#b1b1b1"/><stop offset=".5" stop-color="#fff"/><stop offset="1" stop-color="#8f8f8f"/></linearGradient><linearGradient id="d"><stop offset="0" stop-color="#ece5a5"/><stop offset="1" stop-color="#fcfbf2"/></linearGradient><linearGradient id="e"><stop offset="0" stop-color="#dbce48"/><stop offset="1" stop-color="#c5b625"/></linearGradient></defs>/&gt;<path d="M1 3h1l1 1v11h12V2l-1-1H1z" fill="#e9e9e9" fill-rule="evenodd"/><path d="M2.494 0C1.548-.013.812.5.432 1.19c-.38.692-.48 1.534-.412 2.35A.5.5 0 0 0 .518 4h1.468v9.5c0 .658.338 1.252.793 1.707.453.455 1.047.793 1.705.793H12v-1H4.486c-.284 0-.69-.19-1-.5s-.5-.715-.5-1v-10a.5.5 0 0 0-.5-.5H1.09c.018-.488.036-.998.217-1.326C1.55 1.232 1.86.992 2.48 1a.5.5 0 0 0 .006 0H12V0z" fill="#a3a3a3"/><path d="M5.987 2v1H12V2zm0 2v1H12V4zm0 2v1H12V6zm0 2v1H12V8zm0 2v1H12v-1zm-2-8v1h1V2zm0 2v1h1V4zm0 2v1h1V6zm0 2v1h1V8zm0 2v1h1v-1zm0 2v1h1v-1z" fill="#adadad"/><g fill="#a3a3a3"><path d="M6.486 12a.5.5 0 0 0-.5.5c.002.762-.123 1.436-.365 1.86-.24.426-.53.64-1.133.64a.5.5 0 0 0-.146.023.5.5 0 0 0-.046.018.5.5 0 0 0-.127.08.5.5 0 0 0-.035.037.5.5 0 0 0-.12.463.5.5 0 0 0 .033.093.5.5 0 0 0 .05.086.5.5 0 0 0 .034.037.5.5 0 0 0 .16.117.5.5 0 0 0 .144.04.5.5 0 0 0 .054.005H13v-1H6.35c.038-.056.107-.087.14-.146.3-.526.347-1.192.39-1.855H13v-1zM7 0v1h6.188c.23 0 .752.252 1.148.648.396.396.65.92.65 1.15L15.003 13h1l-.017-10.2c0-.712-.423-1.34-.94-1.86C14.526.424 13.9 0 13.188 0z"/><path d="M9 12v1h5.912c-.018.49-.035 1.005-.22 1.334-.245.442-.56.683-1.192.666a.5.5 0 0 0-.014 0H9v1h4.475c.958.026 1.706-.486 2.093-1.18.387-.693.487-1.54.418-2.363a.5.5 0 0 0-.5-.457z"/></g><path d="M12.987 2v1h1V2zm0 2v1h1V4zm0 2v1h1V6zm0 2v1h1V8zm0 2v1h1v-1z" fill="#adadad"/><path d="M6.88 13H15l-.186 1H6.762z" fill="#fff"/><path d="M9 0v3h1l1-.287V12.2l-1 .8H9v3h7v-3h-1l-1-.726V2.678L15.143 3H16V0z" opacity=".52" fill-rule="evenodd"/><path d="M16-4.944l1.94-.027s1 0 1 1v15.387s-.087 1.544-1.088 1.544H16m5.833-17.95l-1.91.018s-1 0-1 1V11.96s.09 1.01 1.09 1l1.82-.016" transform="matrix(.85714 0 0 .72727 -3.714 5.09)" fill="none" stroke="#fff" stroke-width="1.267"/></svg>
